X:1
T:Partition sans titre
C:Compositeur / Arrangeur
L:1/4
M:4/4
I:linebreak $
K:D
V:1 treble nm="Violon" snm="Vln."
V:1
"D" A d"G" B c/B/ |"D" A d"G" B c/B/ |"D" A d f e |"G" B c"D" e d |"D" A d"G" B c/B/ | %5
"D" A d"G" B c/B/ |"D" A d f e |"G" B c"D" d2 ::"D" A d d/d/d/d/ |"A" c d e2 | A c e e/f/ | %11
 e d"D" f3/2 f/ |"D" f a g f | e d"G" B c/B/ |"D" A d f e |"G" B c"D" d2 :| %16
